src/assets/images/free-demat-compaign/open-low-brokerage-demat-account.svg

<svg width="109" height="109" viewBox="0 0 109 109" fill="none" xmlns="http://www.w3.org/2000/svg">
<path d="M60.3861 49.0962V49.1926C60.3861 50.3974 60.3861 51.6504 60.4343 52.8552C60.4343 53.6745 60.627 54.4938 60.9162 55.2649C61.2536 56.0841 61.7355 56.8552 62.4584 57.3853C63.2295 57.9637 64.0969 58.2046 65.0608 58.2528C66.1692 58.2528 67.1813 58.0119 68.0969 57.3372C68.627 56.9516 69.0126 56.4215 69.3499 55.8432C69.3499 55.7468 69.4463 55.6504 69.4463 55.6022C69.4463 53.4817 69.4463 51.3612 69.4463 49.2408C69.4463 49.1926 69.4463 49.1444 69.4463 49.0962H60.3379H60.3861Z" fill="url(#paint0_linear_258_95)"/>
<path d="M69.4938 42.9761H60.4336V46.0122H69.4938V42.9761Z" fill="url(#paint1_linear_258_95)"/>
<path d="M54.1213 16.9037C32.9164 16.9037 15.8562 34.2049 15.9044 55.4579C15.9044 76.4699 33.2056 93.6747 54.2658 93.6265C75.4707 93.6265 92.6755 76.4217 92.6755 55.3133C92.6755 34.0121 75.4225 16.8555 54.1695 16.8555L54.1213 16.9037ZM47.9526 65.2892V71.3615H31.2779V69.8193C31.2779 68.3253 31.5189 66.9759 31.9526 65.7229C32.4345 64.4699 32.9646 63.3615 33.6393 62.3494C34.314 61.3374 35.1815 60.1808 36.2899 58.8314C37.3984 57.4338 38.314 56.229 38.9887 55.2651C39.6634 54.3013 40.1936 53.1928 40.6755 51.8916C41.1574 50.6386 41.3502 49.2892 41.3502 47.7952C41.3502 46.3012 41.2056 46.2531 40.9646 45.7711C40.7237 45.2892 40.2417 45.0482 39.6152 45.0482C38.555 45.0482 38.0249 46.0121 38.0249 47.9398V51.8916H31.2297L31.1333 49.9157C31.1333 47.4579 31.3743 45.482 31.9044 43.8916C32.3863 42.3013 33.2538 41.1446 34.5068 40.2772C35.7598 39.4579 37.4948 39.0241 39.6634 39.0241C41.8321 39.0241 44.4345 39.7952 45.9285 41.2892C47.4225 42.7832 48.1454 44.9519 48.1454 47.6988C48.1454 50.4458 47.9044 51.0723 47.4225 52.5181C46.9405 53.9639 46.314 55.2169 45.6393 56.2772C44.9164 57.3374 44.0008 58.5904 42.796 60.0362C41.9285 61.0482 41.2538 61.9639 40.6755 62.7832C40.0972 63.6025 39.6152 64.4217 39.1815 65.241H47.9526V65.2892ZM78.9887 40.1326C78.9887 40.229 78.8924 40.3735 78.8442 40.4699C78.3622 41.2892 77.8803 42.0603 77.3984 42.8796C77.3502 42.976 77.2538 42.9759 77.2056 42.9759C75.9526 42.9759 74.6996 42.9759 73.4948 42.9759H73.302V46.0603H78.9887C78.9405 46.1567 78.8923 46.2049 78.8923 46.2531C78.3622 47.1687 77.8321 48.0844 77.2538 49C77.2056 49.0964 77.1092 49.0964 77.061 49.0964C75.8562 49.0964 74.6996 49.0964 73.4948 49.0964H73.302V71.3133H69.543V59.747C69.4948 59.747 69.4466 59.747 69.4466 59.747C68.049 60.7591 66.4586 61.0964 64.7719 61.0964C63.7598 61.0964 62.7478 61 61.7839 60.6627C60.0972 60.0362 58.8442 58.8796 57.9767 57.3374C57.1574 55.8916 56.6755 54.3013 56.6755 52.6145C56.6755 51.5061 56.6755 50.3976 56.6273 49.241C56.6273 49.241 56.6273 49.1446 56.6273 49.0964H52.0972C52.0972 49.0482 52.1454 49 52.1936 48.9519C52.7237 48.0362 53.302 47.1205 53.8321 46.2049C53.8803 46.1085 53.9285 46.1085 54.0249 46.1085C54.8442 46.1085 55.6634 46.1085 56.4827 46.1085C56.5309 46.1085 56.5791 46.1085 56.6273 46.1085V43.0723C56.5791 43.0723 56.4827 43.0723 56.4345 43.0723C55.1333 43.0723 53.8321 43.0723 52.5791 43.0723C52.4345 43.0723 52.2417 43.0723 52.049 43.0723C52.0972 42.976 52.1454 42.8796 52.1936 42.7832C52.6755 41.9639 53.2056 41.0964 53.6875 40.2772C53.7839 40.1326 53.8803 40.0844 54.0249 40.0844C55.3261 40.0844 56.5791 40.0844 57.8803 40.0844C61.1574 40.0844 64.4827 40.0844 67.7598 40.0844C71.3261 40.0844 74.8442 40.0844 78.4104 40.0844C78.6032 40.0844 78.796 40.0844 78.9887 40.0844C79.1333 40.0844 79.1333 40.1326 79.0851 40.2772L78.9887 40.1326Z" fill="url(#paint2_linear_258_95)"/>
<path d="M104.338 45.1444C102.651 43.2167 101.928 41.048 102.458 38.542C102.603 37.9155 102.651 37.289 102.699 36.6625C103.085 29.4336 99.2295 23.6505 92.4344 21.2408C90.0729 20.4215 88.5789 18.8312 87.7597 16.4697C85.2536 9.24082 78.1211 5.09624 70.603 6.49383C68.0488 6.97576 65.8801 6.44564 63.9524 4.7107C62.4103 3.3613 60.6753 2.30106 58.6994 1.72274C57.7356 1.43359 56.7235 1.24082 55.7597 0.95166H52.3862C51.0368 1.3372 49.591 1.52997 48.3862 2.10829C46.844 2.83118 45.3982 3.79503 44.0488 4.85527C42.1693 6.34925 40.1452 6.97576 37.7838 6.49383C30.0729 4.99985 22.9404 9.09624 20.338 16.5179C19.5187 18.8312 17.9765 20.3733 15.6633 21.1926C8.81991 23.6505 4.96449 29.4336 5.35003 36.6143C5.35003 37.3372 5.5428 38.0601 5.63919 38.783C5.97654 40.8553 5.63919 42.8312 4.2416 44.4215C2.02473 46.9276 0.578949 49.7709 0.193406 53.1444C0.193406 53.2408 0.0970209 53.3372 0.0488281 53.4336V56.3733C0.0970209 56.5179 0.193406 56.7107 0.241599 56.8553C0.627141 59.9878 1.88015 62.6866 4.00064 65.048C5.5428 66.783 6.07292 68.8071 5.63919 71.1203C4.14521 79.0239 8.09702 85.9637 15.6633 88.6625C18.0247 89.4818 19.5187 91.0721 20.338 93.4336C22.7958 100.566 29.8802 104.759 37.3018 103.409C40.0006 102.928 42.2175 103.506 44.338 105.289C50.0729 110.156 58.1211 110.156 63.8561 105.289C65.9283 103.554 68.097 102.928 70.7958 103.409C78.2657 104.759 85.35 100.614 87.8079 93.4818C88.6271 91.0721 90.1693 89.53 92.5789 88.6625C100.049 86.0119 104.049 79.0239 102.555 71.2167C102.121 68.9035 102.651 66.8312 104.193 65.048C104.868 64.277 105.495 63.4577 106.025 62.5902C109.302 57.048 108.675 49.9637 104.434 45.0962L104.338 45.1444ZM54.2175 96.9517C31.2295 96.9517 12.6271 78.2529 12.6271 55.1685C12.6271 32.2288 31.3741 13.6264 54.4585 13.6264C77.2536 13.6264 95.9524 32.3733 95.9524 55.1685C95.9524 78.2529 77.3018 96.9517 54.2175 96.9035V96.9517Z" fill="url(#paint3_linear_258_95)"/>
<defs>
<linearGradient id="paint0_linear_258_95" x1="64.8921" y1="49.0962" x2="64.8921" y2="58.2528" gradientUnits="userSpaceOnUse">
<stop stop-color="#9CFFAC"/>
<stop offset="1" stop-color="#00B59C"/>
</linearGradient>
<linearGradient id="paint1_linear_258_95" x1="64.9637" y1="42.9761" x2="64.9637" y2="46.0122" gradientUnits="userSpaceOnUse">
<stop stop-color="#9CFFAC"/>
<stop offset="1" stop-color="#00B59C"/>
</linearGradient>
<linearGradient id="paint2_linear_258_95" x1="54.2899" y1="16.8555" x2="54.2899" y2="93.6266" gradientUnits="userSpaceOnUse">
<stop stop-color="#9CFFAC"/>
<stop offset="1" stop-color="#00B59C"/>
</linearGradient>
<linearGradient id="paint3_linear_258_95" x1="54.0794" y1="0.95166" x2="54.0794" y2="108.94" gradientUnits="userSpaceOnUse">
<stop stop-color="#9CFFAC"/>
<stop offset="1" stop-color="#00B59C"/>
</linearGradient>
</defs>
</svg>

<svg width="109" height="109" fill="none" xmlns="http://www.w3.org/2000/svg"><path d="M60.386 49.096v.097c0 1.204 0 2.457.048 3.662 0 .82.193 1.639.482 2.41.338.82.82 1.59 1.542 2.12.772.579 1.639.82 2.603.868 1.108 0 2.12-.241 3.036-.916.53-.385.916-.916 1.253-1.494 0-.096.096-.193.096-.24v-6.507h-9.108.048z" fill="url(#a)"/><path d="M69.494 42.976h-9.06v3.036h9.06v-3.036z" fill="url(#b)"/><path d="M54.121 16.904c-21.205 0-38.265 17.3-38.217 38.554 0 21.012 17.302 38.217 38.362 38.168 21.205 0 38.41-17.204 38.41-38.313 0-21.3-17.254-38.458-38.507-38.458l-.048.049zm-6.168 48.385v6.073H31.278v-1.543c0-1.494.24-2.843.675-4.096.482-1.253 1.012-2.361 1.686-3.374.675-1.012 1.542-2.168 2.65-3.518 1.11-1.397 2.025-2.602 2.7-3.566.674-.964 1.205-2.072 1.687-3.373.481-1.253.674-2.603.674-4.097 0-1.494-.144-1.542-.385-2.024-.241-.482-.723-.723-1.35-.723-1.06 0-1.59.964-1.59 2.892v3.952H31.23l-.097-1.976c0-2.458.241-4.434.771-6.024.482-1.59 1.35-2.747 2.603-3.615 1.253-.82 2.988-1.253 5.156-1.253 2.17 0 4.772.771 6.266 2.265 1.493 1.494 2.216 3.663 2.216 6.41 0 2.747-.24 3.373-.723 4.82a17.03 17.03 0 0 1-1.783 3.758 48.393 48.393 0 0 1-2.843 3.76 35.944 35.944 0 0 0-2.12 2.746c-.579.82-1.06 1.639-1.495 2.458h8.772v.048zm31.036-25.156c0 .096-.097.24-.145.337-.482.82-.964 1.59-1.446 2.41-.048.096-.144.096-.192.096h-3.904v3.084h5.687c-.049.097-.097.145-.097.193-.53.916-1.06 1.831-1.638 2.747-.048.096-.145.096-.193.096h-3.759v22.217h-3.759V59.747h-.096c-1.398 1.012-2.988 1.35-4.675 1.35-1.012 0-2.024-.097-2.988-.434-1.687-.627-2.94-1.783-3.807-3.326-.82-1.445-1.301-3.036-1.301-4.723 0-1.108 0-2.216-.049-3.373v-.145h-4.53c0-.048.048-.096.097-.144.53-.916 1.108-1.831 1.638-2.747.048-.096.096-.096.193-.096H56.627v-3.037H52.05l.145-.289c.481-.82 1.012-1.687 1.493-2.506.097-.144.193-.193.338-.193H78.989c.144 0 .144.049.096.193l-.096-.144z" fill="url(#c)"/><path d="M104.338 45.144c-1.687-1.927-2.41-4.096-1.88-6.602.145-.627.193-1.253.241-1.88.386-7.228-3.47-13.011-10.265-15.421-2.361-.82-3.855-2.41-4.674-4.771-2.506-7.23-9.639-11.374-17.157-9.976-2.554.482-4.723-.048-6.65-1.783-1.543-1.35-3.278-2.41-5.254-2.988-.963-.29-1.975-.482-2.94-.771h-3.373c-1.35.385-2.795.578-4 1.156-1.542.723-2.988 1.687-4.337 2.747-1.88 1.494-3.904 2.12-6.265 1.639C30.073 5 22.94 9.096 20.338 16.518c-.82 2.313-2.361 3.855-4.675 4.675C8.82 23.65 4.964 29.433 5.35 36.614c0 .723.193 1.446.29 2.169.337 2.072 0 4.048-1.398 5.639C2.025 46.928.579 49.77.193 53.144c0 .097-.096.193-.144.29v2.94c.048.144.144.337.193.481C.627 59.988 1.88 62.687 4 65.048c1.542 1.735 2.072 3.76 1.638 6.072-1.494 7.904 2.458 14.844 10.024 17.542 2.362.82 3.856 2.41 4.675 4.772 2.458 7.132 9.542 11.325 16.964 9.975 2.699-.481 4.916.097 7.036 1.88 5.735 4.867 13.783 4.867 19.518 0 2.072-1.735 4.241-2.361 6.94-1.88 7.47 1.35 14.554-2.795 17.012-9.927.82-2.41 2.361-3.952 4.77-4.82 7.471-2.65 11.471-9.638 9.977-17.445-.434-2.314.096-4.386 1.638-6.169a18.042 18.042 0 0 0 1.832-2.458c3.277-5.542 2.65-12.626-1.591-17.494l-.096.048zm-50.12 51.808c-22.989 0-41.59-18.7-41.59-41.783 0-22.94 18.746-41.543 41.83-41.543 22.796 0 41.494 18.747 41.494 41.543 0 23.084-18.65 41.783-41.734 41.734v.049z" fill="url(#d)"/><defs><linearGradient id="a" x1="64.892" y1="49.096" x2="64.892" y2="58.253" gradientUnits="userSpaceOnUse"><stop stop-color="#9CFFAC"/><stop offset="1" stop-color="#00B59C"/></linearGradient><linearGradient id="b" x1="64.964" y1="42.976" x2="64.964" y2="46.012" gradientUnits="userSpaceOnUse"><stop stop-color="#9CFFAC"/><stop offset="1" stop-color="#00B59C"/></linearGradient><linearGradient id="c" x1="54.29" y1="16.855" x2="54.29" y2="93.627" gradientUnits="userSpaceOnUse"><stop stop-color="#9CFFAC"/><stop offset="1" stop-color="#00B59C"/></linearGradient><linearGradient id="d" x1="54.079" y1=".952" x2="54.079" y2="108.94" gradientUnits="userSpaceOnUse"><stop stop-color="#9CFFAC"/><stop offset="1" stop-color="#00B59C"/></linearGradient></defs></svg>
